packages/landing-ui/public/warming-up-icon.svg

<svg width="53" height="52" viewBox="0 0 53 52" fill="none" xmlns="http://www.w3.org/2000/svg">
<path d="M2.39003 33.7237L2.38719 33.7734C2.19486 37.1422 4.0819 40.2982 7.19598 41.8112L7.22792 41.8268C8.32579 42.352 9.22567 43.2178 9.79341 44.2944L9.80619 44.3178C11.3753 47.3056 14.6207 49.1167 18.0804 48.935L18.1329 48.9322C19.3876 48.8619 20.6331 49.1855 21.6948 49.8583C24.6243 51.6907 28.343 51.6907 31.2726 49.8583C32.3343 49.1855 33.5798 48.8619 34.8345 48.9322L34.887 48.935C38.341 49.1181 41.5906 47.3056 43.1633 44.3128L43.1711 44.2965C43.741 43.2171 44.643 42.3499 45.7444 41.824L45.77 41.8112C48.884 40.2975 50.7718 37.1422 50.5788 33.7727L50.5759 33.7258C50.512 32.5393 50.8413 31.3647 51.5141 30.3847C53.4508 27.5601 53.4508 23.8357 51.5148 21.0105C50.8428 20.0311 50.512 18.8573 50.5759 17.6707L50.5788 17.6211C50.7718 14.2515 48.884 11.0963 45.7671 9.58181L45.7387 9.56761C44.643 9.04387 43.7452 8.18232 43.1768 7.10857L43.1605 7.07663C41.5906 4.08888 38.341 2.27849 34.887 2.45946L34.8338 2.46229C33.5798 2.53255 32.3343 2.20894 31.2733 1.53616H31.2719C28.3423 -0.296233 24.6236 -0.296233 21.694 1.53616C20.6324 2.20823 19.3869 2.53184 18.1322 2.46158L18.0796 2.45875C14.6249 2.27565 11.376 4.08817 9.8069 7.07522L9.79483 7.09722C9.22638 8.17593 8.32579 9.04245 7.2265 9.56832L7.19669 9.58252C4.08261 11.0956 2.19486 14.2515 2.3879 17.6211L2.39074 17.6679C2.45461 18.8545 2.12532 20.029 1.45254 21.0084C-0.48418 23.8336 -0.48418 27.5587 1.45254 30.3832C2.12461 31.3626 2.45461 32.5371 2.39003 33.7237ZM3.84487 22.6591C4.88313 21.1475 5.39197 19.3349 5.29262 17.504L5.28978 17.4543C5.18759 15.2216 6.44088 13.1479 8.46418 12.1991L8.48902 12.187C10.149 11.3922 11.508 10.0835 12.3653 8.45554L12.3795 8.42858C13.422 6.44289 15.6057 5.23927 17.9249 5.36276L17.976 5.36489C19.8318 5.46921 21.6735 4.99088 23.2433 3.99591C25.2254 2.7561 27.7405 2.7561 29.7227 3.99591C31.2925 4.98947 33.1341 5.4685 34.9892 5.3656L35.0403 5.36276C37.3709 5.24069 39.5439 6.44289 40.5836 8.4229L40.6028 8.45909C41.4601 10.085 42.8177 11.3915 44.4755 12.1856L44.4996 12.1977C46.5549 13.1969 47.8025 15.26 47.6769 17.455L47.674 17.5068C47.5747 19.3378 48.0842 21.1496 49.1225 22.6612C50.3772 24.4915 50.3765 26.9044 49.1211 28.7339C48.0835 30.2463 47.5747 32.0588 47.674 33.8898L47.6769 33.9387C47.8025 36.1338 46.5549 38.1975 44.4989 39.1975L44.4776 39.2074C42.8163 40.0037 41.4558 41.3137 40.5978 42.9446L40.5872 42.9659C39.5439 44.9516 37.3638 46.1559 35.041 46.0317L34.9906 46.0289C33.1348 45.9252 31.2925 46.4043 29.722 47.3985C27.7405 48.6376 25.2254 48.6376 23.244 47.3985C21.8161 46.4937 20.1597 46.014 18.4693 46.0154C18.3053 46.0154 18.1407 46.0196 17.976 46.0289L17.9249 46.031C15.6362 46.1765 13.471 44.9785 12.3774 42.9623L12.3625 42.9347C11.5066 41.3095 10.1497 40.0037 8.49257 39.2095L8.4656 39.1961C6.40966 38.1968 5.16204 36.1331 5.28836 33.9387L5.2912 33.8869C5.38985 32.056 4.8803 30.2434 3.84274 28.7325C2.58874 26.9023 2.58945 24.4893 3.84487 22.6605V22.6591Z" fill="white"/>
<path d="M17.1052 40.7225C17.7858 41.1476 18.6821 40.9397 19.1072 40.2591L36.3248 12.6767C36.6058 12.2359 36.6292 11.6781 36.3851 11.2161C36.141 10.7534 35.6669 10.4582 35.1446 10.4419C34.6222 10.4256 34.1312 10.691 33.8586 11.1374L16.6418 38.7198C16.2167 39.4011 16.4239 40.2974 17.1052 40.7225Z" fill="white"/>
<path d="M18.6481 25.769C22.1873 25.769 25.0671 22.4853 25.0671 18.4493C25.0671 14.4134 22.1873 11.1304 18.6481 11.1304C15.1089 11.1304 12.2297 14.4134 12.2297 18.4493C12.2297 22.4853 15.1089 25.769 18.6481 25.769ZM18.6481 14.0372C20.5848 14.0372 22.1603 16.0165 22.1603 18.4493C22.1603 20.8821 20.5848 22.8621 18.6481 22.8621C16.7121 22.8621 15.1366 20.8814 15.1366 18.4493C15.1366 16.0172 16.7121 14.0372 18.6481 14.0372Z" fill="white"/>
<path d="M27.8995 32.9464C27.8995 36.9823 30.7787 40.2653 34.3179 40.2653C37.8571 40.2653 40.7369 36.9816 40.7369 32.9464C40.7369 28.9118 37.8578 25.6274 34.3186 25.6274C30.7787 25.6274 27.8995 28.9097 27.8995 32.9464ZM37.8301 32.9464C37.8301 35.3792 36.2546 37.3585 34.3179 37.3585C32.3819 37.3585 30.8064 35.3792 30.8064 32.9464C30.8064 30.5136 32.3819 28.5343 34.3179 28.5343C36.2546 28.5343 37.8301 30.5122 37.8301 32.9464Z" fill="white"/>
</svg>

<svg width="53" height="52" fill="none" xmlns="http://www.w3.org/2000/svg"><path d="M2.39 33.724l-.003.05c-.192 3.368 1.695 6.524 4.809 8.037l.032.016a5.665 5.665 0 012.565 2.467l.013.024c1.57 2.988 4.815 4.799 8.274 4.617l.053-.003c1.255-.07 2.5.253 3.562.926a9.03 9.03 0 009.578 0 6.025 6.025 0 013.561-.926l.053.003c3.454.183 6.704-1.63 8.276-4.622l.008-.017a5.676 5.676 0 012.573-2.472l.026-.013c3.114-1.514 5.002-4.669 4.809-8.038l-.003-.047a5.39 5.39 0 01.938-3.341 8.29 8.29 0 000-9.375 5.391 5.391 0 01-.938-3.34l.003-.049c.193-3.37-1.695-6.525-4.812-8.04l-.028-.013a5.66 5.66 0 01-2.562-2.46l-.017-.031c-1.57-2.988-4.819-4.799-8.273-4.618l-.053.003a6.02 6.02 0 01-3.56-.926h-.002a9.031 9.031 0 00-9.578 0 6.03 6.03 0 01-3.562.926l-.052-.003c-3.455-.183-6.704 1.63-8.273 4.616l-.012.022a5.668 5.668 0 01-2.569 2.471l-.03.015c-3.113 1.513-5.001 4.668-4.808 8.038l.003.047a5.388 5.388 0 01-.938 3.34 8.29 8.29 0 000 9.375 5.387 5.387 0 01.937 3.34zm1.455-11.065a8.31 8.31 0 001.448-5.155l-.003-.05A5.526 5.526 0 018.464 12.2l.025-.012a8.558 8.558 0 003.876-3.731l.014-.027c1.043-1.986 3.227-3.19 5.546-3.066l.051.002a8.905 8.905 0 005.267-1.37 6.109 6.109 0 016.48 0 8.925 8.925 0 005.266 1.37l.051-.002c2.33-.122 4.504 1.08 5.544 3.06l.019.036a8.557 8.557 0 003.872 3.727l.025.012c2.055.999 3.303 3.062 3.177 5.257l-.003.052a8.308 8.308 0 001.449 5.154 5.368 5.368 0 01-.002 6.073 8.318 8.318 0 00-1.447 5.156l.003.049c.126 2.195-1.122 4.258-3.178 5.258l-.021.01a8.568 8.568 0 00-3.88 3.738l-.01.02c-1.044 1.987-3.224 3.19-5.547 3.067l-.05-.003a8.92 8.92 0 00-5.269 1.37 6.11 6.11 0 01-6.478 0 8.907 8.907 0 00-5.268-1.37l-.051.002a5.887 5.887 0 01-5.548-3.069l-.014-.027a8.548 8.548 0 00-3.87-3.726l-.027-.013c-2.056-1-3.304-3.063-3.178-5.257l.003-.052a8.316 8.316 0 00-1.448-5.154 5.368 5.368 0 01.002-6.073z" fill="#fff"/><path d="M17.105 40.722c.68.426 1.577.218 2.002-.463l17.218-27.582a1.454 1.454 0 10-2.466-1.54L16.642 38.72a1.453 1.453 0 00.463 2.002zM18.648 25.769c3.54 0 6.42-3.284 6.42-7.32 0-4.036-2.88-7.319-6.42-7.319s-6.418 3.283-6.418 7.32c0 4.035 2.879 7.319 6.418 7.319zm0-11.732c1.937 0 3.512 1.98 3.512 4.412 0 2.433-1.575 4.413-3.512 4.413-1.936 0-3.511-1.98-3.511-4.413 0-2.432 1.575-4.412 3.511-4.412zM27.9 32.946c0 4.036 2.879 7.32 6.418 7.32 3.54 0 6.419-3.284 6.419-7.32 0-4.034-2.88-7.319-6.418-7.319-3.54 0-6.42 3.283-6.42 7.32zm9.93 0c0 2.433-1.575 4.413-3.512 4.413-1.936 0-3.512-1.98-3.512-4.413 0-2.432 1.576-4.412 3.512-4.412 1.937 0 3.512 1.978 3.512 4.412z" fill="#fff"/></svg>
